X: 13
T: String Quartet No. 4 in C Minor, Op. 18, No. 4 mvt 1
C: Ludwig van Beethoven
%%abc-version 2.0
%%abcx-abcm2ps-target-version 5.9.1 (29 Sep 2008)
%%abc-creator hum2abc beta
%%abcx-conversion-date 2021/01/27 10:01:16
%%abc-edited-by Craig Stuart Sapp
%%abcx-initial-encoding-date 2006/02/01/
%%gracespace 0 6 6
%%humdrum-veritas 1469231749
%%humdrum-veritas-data 2315498028
%%linebreak <none>
%%barnumbers 0
L: 1/8
M: 4/4
N: Derived from quartet04-1.krn
Q: "Allegro ma non tanto" 1/4=132
%%staves [1 2 3 4]
V: 1 clef=treble
V: 2 clef=treble
V: 3 clef=alto
V: 4 clef=bass
K: Eb
[V:1] G,2 [I:setbarnb 1]]|:  
[V:2] z2 ]|:  
[V:3] z2 ]|:  
[V:4] z2 ]|:  
[V:1] C4-C{/D2C2=B,2}CED | 
[V:2] G,6=B,2 | 
[V:3] E,6F,2 | 
[V:4] C,,C,C,C, C,C,C,C, | 
[V:1] D4C2C2 | 
[V:2] =B,4G,2z2 | 
[V:3] A,2>F,2E,2z2 | 
[V:4] C,C,C,C, C,C,C,C, | 
[V:1] F4-F{/G2F2=E2}FAG | 
[V:2] C6=E2 | 
[V:3] A,6B,2 | 
[V:4] C,,C,C,C, C,C,C,C, | 
[V:1] G4F2F2 | 
[V:2] =E4C2z2 | 
[V:3] _D2>B,2A,2z2 | 
[V:4] C,C,C,C, C,C,C,C, | 
[V:1] Fdd4c2 | 
[V:2] z2F4E2 | 
[V:3] z2A,4G,2 | 
[V:4] C,,C,C,C, C,C,C,C, | 
[V:1] =Bff4e2 | 
[V:2] DAA4G2 | 
[V:3] F,=B,=B,4C2 | 
[V:4] C,,C,C,C, C,C,C,C, | 
[V:1] edc4=B2 | 
[V:2] AA^FF =A=A=FF | 
[V:3] FFEE EEDD | 
[V:4] F,F,A,A, ^F,F,G,G, | 
[V:1] c2>d2e2z c | 
[V:2] GGGG GGEC | 
[V:3] G,G,G,F EG,E,C, | 
[V:4] E,E,E,=B,, C,G,E,C, | 
[V:1] =Baa4g2 | 
[V:2] G,DDD DDEE | 
[V:3] G,=B,=B,=B, =B,=B,CC | 
[V:4] G,,F,F,F, F,F,E,E, | 
[V:1] ff'f'4e'2 | 
[V:2] z Ddd ddee | 
[V:3] z G,G,G, G,G,G,G, | 
[V:4] z =B,,=B,,=B,, =B,,=B,,C,C, | 
[V:1] e'2d'2-d'd'f'd' | 
[V:2] e2d2-ddfd | 
[V:3] A,[CA][CA][CA] [CF][CF][CA][CA] | 
[V:4] F,,F,F,F, A,A,F,F, | 
[V:1] d'2c'4=b2 | 
[V:2] d2[E4c4][D2=B2] | 
[V:3] [C=A][C=A]^FF GG[G,=F][G,F] | 
[V:4] ^F,F,A,A, G,G,G,,G,, | 
[V:1] c'2z2z4 | 
[V:2] [G,2E2c2]z2[G,2D2=B2]z2 | 
[V:3] [G,2E2]z2[G,2G2]z2 | 
[V:4] C,2z2G,,2z2 | 
[V:1] z4z2[G2e2c'2] | 
[V:2] [G,2E2c2][G,2D2=B2][G,2E2c2]z2 | 
[V:3] [G,2G2][G,2G2][G,2G2]z2 | 
[V:4] C,2G,,2C,2z2 | 
[V:1] z8 | 
[V:2] [G,2D2=B2]z2[G,2E2c2]z2 | 
[V:3] [G,2G2]z2[G,2G2]z2 | 
[V:4] G,,2z2C,2z2 | 
[V:1] z4z2[G2d2=b2] | 
[V:2] [G,2D2=B2][G,2E2c2][G,2D2=B2]z2 | 
[V:3] [G,2G2][G,2G2][G,2G2]z2 | 
[V:4] G,,2C,2G,,2z2 | 
[V:1] gg'g'4f'2- | 
[V:2] z2G2=A2=B2 | 
[V:3] z2G,2=A,2=B,2 | 
[V:4] E,4D,4 | 
[V:1] f'2e'4_d'2- | 
[V:2] c2E2F2G2 | 
[V:3] C2E,2F,2G,2 | 
[V:4] C,4B,,4 | 
[V:1] d'c'c'b bag^f | 
[V:2] A2E2C2c2 | 
[V:3] A,2E,2C,2C2 | 
[V:4] A,,6A,,2 | 
[V:1] g2z2z Ggf | 
[V:2] =BDDD DDDD | 
[V:3] =B,=B,=B,=B, =B,=B,=B,=B, | 
[V:4] G,,G,G,G, G,G,G,G, | 
[V:1] fedc BAG^F | 
[V:2] z EEE EEEE | 
[V:3] z CCC CCCC | 
[V:4] G,,G,G,G, G,G,G,G, | 
[V:1] =A2G2z Ggf | 
[V:2] z DDD DDDD | 
[V:3] z =B,=B,=B, =B,=B,=B,=B, | 
[V:4] G,,G,G,G, G,G,G,G, | 
[V:1] fedc BAG^F | 
[V:2] z EEE EEEE | 
[V:3] z CCC CCCC | 
[V:4] G,,G,G,G, G,G,G,G, | 
[V:1] =AGz/d/e/^F/ =AGz/d/e/F/ | 
[V:2] z [G,D][G,E][G,E]z[G,D][G,E][G,E] | 
[V:3] z =B,CCz=B,CC | 
[V:4] G,,2C,2G,,2C,2 | 
[V:1] G2[G,2D2=B2g2]z4 | 
[V:2] [G,2D2][G,2D2=B2]z4 | 
[V:3] =B,2[G,2G2]z4 | 
[V:4] [G,,2G,2][G,,2G,2]z4 | 
[V:1] E2>g2 aez_d | 
[V:2] E8- | 
[V:3] E,8- | 
[V:4] E,2_D,2C,2G,,2 | 
[V:1] cez2z4 | 
[V:2] E2>G2 AEz_D | 
[V:3] E,8- | 
[V:4] A,,2_D,2C,2G,,2 | 
[V:1] z2z _d cezd | 
[V:2] CEz2z4 | 
[V:3] E,2B,2E,2B,2- | 
[V:4] A,,2G,,2A,,2G,,2- | 
[V:1] {/c2 _d2 e2}d4c2z2 | 
[V:2] z GAGA2z2 | 
[V:3] B,2E,2A,2z2 | 
[V:4] G,,6z2 | 
[V:1] C2>=e2 fczB | 
[V:2] C8- | 
[V:3] C,8- | 
[V:4] C,2B,2A,2=E,2 | 
[V:1] Acz2z4 | 
[V:2] C2>=E2 FCzB, | 
[V:3] C,8- | 
[V:4] F,2B,,2A,,2=E,,2 | 
[V:1] z2z B Aazf | 
[V:2] A,Cz2z4 | 
[V:3] C,2C4C2- | 
[V:4] F,,2=E,,2F,,2A,,2 | 
[V:1] e4d2z2 | 
[V:2] z4z2B,2 | 
[V:3] C=A,B,=A, CB,_A,F, | 
[V:4] B,,6z2 | 
[V:1] z8 | 
[V:2] B,GG4F2 | 
[V:3] E,B,E,B, A,B,A,B, | 
[V:4] z8 | 
[V:1] z bbb =abge | 
[V:2] {/=E2 F2 G2}F4_E2B,2 | 
[V:3] A,B,A,B, G,B,E,B, | 
[V:4] z2z2z4 | 
[V:1] B2z2z4 | 
[V:2] B,AA4G2 | 
[V:3] D,B,DB, EB,E=A, | 
[V:4] z8 | 
[V:1] z bbb =abc'b | 
[V:2] {/F2 G2 A2}G4F2B,2 | 
[V:3] EB,EB, DB,DA, | 
[V:4] z8 | 
[V:1] b2b2c'2d'2 | 
[V:2] B,BB4A2- | 
[V:3] G,B,G,B, F,B,F,B, | 
[V:4] z8 | 
[V:1] e'2g2=a2=b2 | 
[V:2] A2G4F2- | 
[V:3] E,G,E,G, D,G,D,G, | 
[V:4] z4G,,2z2 | 
[V:1] c'2e2g2=A2 | 
[V:2] FEDC B,=A,E=A, | 
[V:3] C,G,C,E, C,E,C,E, | 
[V:4] C,2z2F,,2z2 | 
[V:1] cB=AB =ABcB | 
[V:2] B,6A,2 | 
[V:3] D,B,=A,B, =A,B,CB, | 
[V:4] B,,2A,,2F,,2D,,2 | 
[V:1] Bgg4f2 | 
[V:2] G,B,B,4A,2 | 
[V:3] B,GG4F2 | 
[V:4] E,,B,,E,B,, D,B,,D,B,, | 
[V:1] {/=e2 f2 g2}f4_e2B2 | 
[V:2] {/G,2 A,2 B,2}A,4G,B,EG | 
[V:3] {/=E2 F2 G2}F4_E2B,2 | 
[V:4] E,B,,E,B,, E,B,,G,,E,, | 
[V:1] Baa4g2 | 
[V:2] ADF4E2 | 
[V:3] B,AA4G2 | 
[V:4] D,,B,,D,B,, E,D,E,=A,, | 
[V:1] {/f2 g2 a2}g4f2z2 | 
[V:2] {/D2 E2 F2}E4D2z2 | 
[V:3] {/F2 G2 A2}G4F2z C | 
[V:4] B,,B,B,B, =A,B,_A,B, | 
[V:1] Bbb4a2- | 
[V:2] z2z e edcd | 
[V:3] EB,GE EDCD | 
[V:4] G,4F,4 | 
[V:1] a2g4f2- | 
[V:2] e2z c c=B=A=B | 
[V:3] EG,EC C=B,=A,=B, | 
[V:4] E,4D,4 | 
[V:1] feed dcB=A | 
[V:2] cEEE EEEE | 
[V:3] CG,G,G, F,F,CC | 
[V:4] C,4F,,4 | 
[V:1] c2B2-B=A/B/ =A/B/e/d/ | 
[V:2] D FFFF2z2 | 
[V:3] B, DDDD2z2 | 
[V:4] B,,B,B,B,B,2z2 | 
[V:1] =B2c2-c=B/c/ =B/c/f/e/ | 
[V:2] z =A=A=A=A2z2 | 
[V:3] z EEEE2z2 | 
[V:4] z B,B,B,B,2z2 | 
[V:1] ^c/d/c/d/ c/d/g/f/ d/e/d/e/ d/e/a/g/ | 
[V:2] z2A2z2G2 | 
[V:3] z2F2z2E2 | 
[V:4] z2B,2z2B,2 | 
[V:1] =e/f/g/f/ a/g/b/a/ g/f/_e/d/ c/B/=A/_A/ | 
[V:2] z2[B,2F2d2]z4 | 
[V:3] z2[B,2A2]z4 | 
[V:4] z2B,,2z4 | 
[V:1] G2B2>B2de | 
[V:2] E2E2>E2AG | 
[V:3] B,2B,2>B,2B,B, | 
[V:4] E,2G,2>G,2F,E, | 
[V:1] fdB4{/B} AG/A/ | 
[V:2] F2A2D2F2 | 
[V:3] B,2D2F2B,2 | 
[V:4] D,2F,2B,,2D,2 | 
[V:1] G2B2>B2de | 
[V:2] B,2E2>E2AG | 
[V:3] B,2B,2>B,2B,B, | 
[V:4] E,2G,2>G,2F,E, | 
[V:1] fdB4{/B} AG/A/ | 
[V:2] F2A2D2F2 | 
[V:3] B,2D2F2B,2 | 
[V:4] D,2F,2B,,2D,2 | 
[V:1] G2B2>B2de | 
[V:2] B,2E2>E2FG | 
[V:3] B,2B,2>B,2A,G, | 
[V:4] E,2G,2>G,2F,E, | 
[V:1] ec2<c2c=ef | 
[V:2] GE2=E FFGA | 
[V:3] G,C2<C2CB,A, | 
[V:4] E,A,2<A,2A,G,F, | 
[V:1] f2e4d2 | 
[V:2] A2G2_G2F2 | 
[V:3] B,2B2c2B2 | 
[V:4] B,4=A,2_A,2 | 
[V:1] eb2b- bbag | 
[V:2] EE2E- EEDE | 
[V:3] BB,2B,- B,B,B,B, | 
[V:4] G,,G,2G,- G,G,F,E, | 
[V:1] fc'2c'- c'c'ba | 
[V:2] EF2F- FF=EF | 
[V:3] CC2C- CCCC | 
[V:4] A,,A,2A,- A,A,G,F, | 
[V:1] g_d'2d'- d'd'c'=b | 
[V:2] =E_d2d- ddc=B | 
[V:3] _D=E2=E- =E=EFF | 
[V:4] B,,B,2B,- B,B,A,G, | 
[V:1] c'c'c'=b c'c'c'=b | 
[V:2] ccc=B ccc=B | 
[V:3] FFFF FFFF | 
[V:4] A,A,A,G, A,A,A,G, | 
[V:1] c'2c'4e'2- | 
[V:2] c2e2c2B2 | 
[V:3] F2E2C2B,2 | 
[V:4] A,4_G,4 | 
[V:1] e'2_g'4=A,2 | 
[V:2] =A4c4 | 
[V:3] =A,4C4 | 
[V:4] F,4E,4 | 
[V:1] B,/=A,/C/B,/ D/C/E/D/ F/=E/G/F/ =A/G/B/=A/ | 
[V:2] F2z2z4 | 
[V:3] F,2z2z4 | 
[V:4] D,2z2z4 | 
[V:1] c/B/d/c/ e/d/f/=e/ g/f/a/g/ b/=a/c'/b/ | 
[V:2] z4z2d2 | 
[V:3] A2F2D2A,2 | 
[V:4] A,2F,2D,2A,,2 | 
[V:1] be'2g'2b'b'b' | 
[V:2] e2z2z ege | 
[V:3] G,2z2z GEG | 
[V:4] G,,2z2z4 | 
[V:1] B,4{/=A2 B2}B4 | 
[V:2] afdB AFDd | 
[V:3] DD,F,A, DFAA, | 
[V:4] B,B,,B,,B,, B,,B,,B,,B,, | 
[V:1] E2z2B2G2 | 
[V:2] e2z2B2G2 | 
[V:3] G,2z2B,2G,2 | 
[V:4] E,2z2B,2G,2 | 
[V:1] E2=E2F2G2 | 
[V:2] E2=E2F2G2 | 
[V:3] E,2=E,2F,2G,2 | 
[V:4] E,2=E,2F,2G,2 | 
[V:1] A2z2_C2z2 | 
[V:2] A2z2_C2z2 | 
[V:3] A,2z2_C2z2 | 
[V:4] A,2z2_C,2z2 | 
[V:1] B,2z2[B,2F2d2][B,2F2d2] | 
[V:2] B,2z2[B,2A2][B,2A2] | 
[V:3] B,2z2B,2B,2 | 
[V:4] B,,2z2B,,2B,,2 | 
[V:1] [G,2E2e2]z2B2G2 | 
[V:2] [B,2G2]z2B2G2 | 
[V:3] E2z2B,2G,2 | 
[V:4] E,2z2B,2G,2 | 
[V:1] E2=E2F2G2 | 
[V:2] E2=E2F2G2 | 
[V:3] E,2=E,2F,2G,2 | 
[V:4] E,2=E,2F,2G,2 | 
[V:1] A2z2C2z2 |[1 
[V:2] A2z2C2z2 | 
[V:3] A,2z2C2z2 | 
[V:4] A,2z2C,2z2 | 
[V:1] =B,2z2[G,2D2=B2][G,2D2=B2] :|]|:[2 
[V:2] =B,2z2[G,2F2][G,2F2] :|]|:  
[V:3] =B,2z2G,2G,2 :|]|:  
[V:4] =B,,2z2G,,2G,,2 :|]|:  
[V:1] ^C2z2[D2=A2^f2][D2=A2f2] | 
[V:2] ^C2z2[D2c2][D2c2] | 
[V:3] ^C2z2D2D2 | 
[V:4] ^C,2z2D,2D,2 | 
[V:1] g4-g{/=a2g2^f2}gb=a & [G,2D2B2]z2x4 | 
[V:2] [DB][DB][DB][DB] [DB][DB][Ec][Ec] | 
[V:3] GGGG GG^FF | 
[V:4] G,,G,G,G, G,G,G,G, | 
[V:1] =a4g2g2 | 
[V:2] [Ec][Ec][Ec][Ec] [DB][DB][D=B][D=B] | 
[V:3] ^FFFF GGGG | 
[V:4] G,G,G,G, G,G,F,F, | 
[V:1] c'4-c'{/d'2c'2=b2}c'e'd' | 
[V:2] [Ec][Ec][Ec][Ec] [Ec][Ec]=B=B | 
[V:3] GGGG GGFF | 
[V:4] E,E,C,C, G,G,G,,G,, | 
[V:1] d'4c'2c2 | 
[V:2] =B=B=B=B cEEE | 
[V:3] FFFF ECCC | 
[V:4] A,,A,A,A, A,A,G,G, | 
[V:1] c=a=a4g2 | 
[V:2] Eccc cccc | 
[V:3] CCCC CCCC | 
[V:4] ^F,F,F,F, F,F,E,E, | 
[V:1] ^fc'c'4b2 | 
[V:2] c=A=A=A =A=AGG | 
[V:3] C^FFF FFGG | 
[V:4] D,DDD DDEE | 
[V:1] b=ag4^f2 | 
[V:2] =e=e^cc dd=cc | 
[V:3] GGBB BB=A=A | 
[V:4] ^CCEE DDD,D, | 
[V:1] g2>=a2b2z g | 
[V:2] Bddc BdBG | 
[V:3] DDDD DDB,G, | 
[V:4] G,B,B,^F, G,DB,G, | 
[V:1] ^fe'e'4d'2 | 
[V:2] D=A=A=A =A=ABB | 
[V:3] D,^FFF FFGG | 
[V:4] D,CCC CCB,B, | 
[V:1] c'2^f'4g'2 | 
[V:2] z ccc ccBB | 
[V:3] z DDD DDDD | 
[V:4] z =A,=A,=A, =A,=A,G,G, | 
[V:1] =A,6e2 | 
[V:2] z eee cc=A=A | 
[V:3] z G,G,G, G,G,G,G, | 
[V:4] z C,C,C, E,E,C,C, | 
[V:1] e2d4^F2 | 
[V:2] BB,B,B, CCCC | 
[V:3] G,G,G,G, =A,=A,=A,=A, | 
[V:4] D,,D,D,D, D,,D,D,D, | 
[V:1] G2z2z4 | 
[V:2] B,2z2z4 | 
[V:3] G,[D,D][D,D][D,D] [D,D][D,D][D,D][D,D] | 
[V:4] G,,4-G,,G,,B,,=A,, | 
[V:1] d'6e'3/d'/ | 
[V:2] z G,B,D GBdG | 
[V:3] [D,D][D,D][D,D][D,D] [D,D][D,D][D,D][D,D] | 
[V:4] =A,,4G,,2z2 | 
[V:1] d'2z2z4 | 
[V:2] ^F2z2z4 | 
[V:3] [D,D][D,D][D,D][D,D] [D,D][D,D][D,D][D,D] | 
[V:4] =A,,4-A,,=A,,C,B,, | 
[V:1] d'6e'3/d'/ | 
[V:2] z ^F=AG F=AdF | 
[V:3] [D,D][D,D][D,D][D,D] [D,D][D,D][D,D][D,D] | 
[V:4] B,,4=A,,2z2 | 
[V:1] d'2z2z4 | 
[V:2] G2z2z4 | 
[V:3] [D,D]G,B,=A,=A,2G,2 | 
[V:4] B,,2z2z B,,D,C, | 
[V:1] z8 | 
[V:2] z8 | 
[V:3] z G,FEE2D2- | 
[V:4] C,2=B,,2>=B,,2A,G, | 
[V:1] z =Bdc =Bdfe | 
[V:2] z4z =Bdc | 
[V:3] DD=B,C DFDE | 
[V:4] G,2F,2z4 | 
[V:1] d=bd'c' =b=b2=b | 
[V:2] =Bfde fFGA | 
[V:3] FAFG AD2D | 
[V:4] G,,4-G,,A,,G,,F,, | 
[V:1] c'4-c'{/d'2c'2=b2}c'e'd' | 
[V:2] G2z2z4 | 
[V:3] E[G,E][G,E][G,E] [G,E][G,E][G,E][G,E] | 
[V:4] E,,2z2z4 | 
[V:1] d'4c'2z2 | 
[V:2] z CEG cegc | 
[V:3] [G,E][G,E][G,E][G,E] [G,E][G,E][G,E][G,E] | 
[V:4] G,,6A,,3/G,,/ | 
[V:1] d'4-d'{/e'2d'2c'2}d'f'e' | 
[V:2] =B2z2z4 | 
[V:3] [G,F][G,F][G,F][G,F] [G,F][G,F][G,F][G,F] | 
[V:4] G,,2z2z4 | 
[V:1] e'4d'4 | 
[V:2] z =Bdc =Bfa=B | 
[V:3] [G,F][G,F][G,F][G,F] [G,F][G,F][G,F][G,F] | 
[V:4] G,,6A,,3/G,,/ | 
[V:1] _d'=egff2=e2- | 
[V:2] B2z2z GBA | 
[V:3] [G,2=E2]z2z4 | 
[V:4] G,,2z2z4 | 
[V:1] e=e_d'c'c'2b2- | 
[V:2] A2G2>G2_dc | 
[V:3] z8 | 
[V:4] z8 | 
[V:1] bg'=e'f' g'_d'bc' | 
[V:2] c2B2z bga | 
[V:3] z =E,G,F, =E,G,B,A, | 
[V:4] z4z =E,G,F, | 
[V:1] _d'bga b_dcB | 
[V:2] b_dBc dBAG | 
[V:3] G,=EGF =E=E,=E,=E, | 
[V:4] =E,G,B,A, G,C,C,C, | 
[V:1] A2a2-aggf | 
[V:2] FFFF FFFF | 
[V:3] F,A,A,A, A,A,A,A, | 
[V:4] _D,D,D,D, D,D,D,D, | 
[V:1] fee_d dcc=B | 
[V:2] FFFF FFAF | 
[V:3] A,A,A,A, A,A,F,A, | 
[V:4] _D,D,D,D, D,D,D,D, | 
[V:1] c2z2[G2=e2c'2]z2 | 
[V:2] [G,2=E2c2][A,2F2c2][G,2=E2c2]z2 | 
[V:3] [C,2C2][C,2C2][C,2C2]z2 | 
[V:4] C,2F,,2C,2z2 | 
[V:1] z4z2[A2f2c'2] | 
[V:2] [A,2F2c2][G,2=E2c2][A,2F2c2]z2 | 
[V:3] [C,2C2][C,2C2][C,2C2]z2 | 
[V:4] F,,2C,2F,,2z2 | 
[V:1] z2[G2=e2c'2]z2[A2f2c'2] | 
[V:2] [G,2=E2c2]z2[A,2F2c2]z2 | 
[V:3] [C,2C2]z2[C,2C2]z2 | 
[V:4] [C,,2C,2]z2F,,2z2 | 
[V:1] z2[G2=e2c'2]z4 | 
[V:2] [G,2=E2c2]z2z4 | 
[V:3] [C,2C2]z2z4 | 
[V:4] [C,,2C,2][K:clef=tenor]C4C2 | 
[V:1] z8 | 
[V:2] =A,CFC =ECB,C | 
[V:3] F,2z2C,2z2 | 
[V:4] C=A=A4G2 | 
[V:1] z c'c'c' =bc'=af | 
[V:2] B,=ECB, =A,CF=A | 
[V:3] F,2z2z4 | 
[V:4] {/^F2 G2 =A2}G4=F2C2 | 
[V:1] c2z2z4 | 
[V:2] GCGC FCFC | 
[V:3] =E,2z2F,2z2 | 
[V:4] CBB4=A2 | 
[V:1] z c'c'c' =bc'd'c' | 
[V:2] FCFC =ECG=E | 
[V:3] C,2z2z2B,2 | 
[V:4] =A4G2C2 | 
[V:1] c'4d'2=e'2 | 
[V:2] FCFC B,CCC | 
[V:3] =A,2z2G,2z2 | 
[V:4] Ccc4B2- | 
[V:1] f'2=a2=b2^c'2 | 
[V:2] C=A,C=A, G=A,G=A, | 
[V:3] F,2z2=E,2z2 | 
[V:4] B2=A4G2- | 
[V:1] d'2d2f2=B2 | 
[V:2] F=A,F=A, FG,FG, | 
[V:3] D,2z2G,2z2 | 
[V:4] GF=ED DCC=B, | 
[V:1] dc=Bc =Bc_dc | 
[V:2] =E2C4B,2 | 
[V:3] C,2[C,4C4][C,2C2] | 
[V:4] C2[K:clef=bass]B,,2G,,2=E,,2 | 
[V:1] Aaa4g2 | 
[V:2] A,CAF =EGc=E | 
[V:3] C4B,4 & C,8- | 
[V:4] F,,4C,,4 | 
[V:1] f2z2z2c2 | 
[V:2] Fc=Bc _dcAF | 
[V:3] [C,A,]C=B,C _DCA,F, | 
[V:4] F,,C,=B,,C, _D,C,A,,F,, | 
[V:1] cbb4a2 | 
[V:2] CGcB AcAF | 
[V:3] [C,8C8]- | 
[V:4] =E,,4F,,4 | 
[V:1] g2z2z2c2 | 
[V:2] =Ec_dB G=ECB, | 
[V:3] [C,C]C_DB, G,=E,CB, | 
[V:4] C,,C_DB, G,=E,C,B,, | 
[V:1] cc'c'4b2- | 
[V:2] A,2Fcc4- | 
[V:3] A,2z2G,GG2- | 
[V:4] A,,4=E,4 | 
[V:1] b2a4_g2- | 
[V:2] c2CAA4- | 
[V:3] G2F2E,EE2- | 
[V:4] F,4C,4 | 
[V:1] g2f4e2- | 
[V:2] A2A,FF4- | 
[V:3] E2_D2C,CC2- | 
[V:4] _D,4=A,,4 | 
[V:1] e2_d4c2 | 
[V:2] F2F4^F2 | 
[V:3] C2B,2F,2^F,2 | 
[V:4] B,,4A,,4 | 
[V:1] =B2z2z2Gg | 
[V:2] G/D/D/D/ D/D/D/D/ D/D/D/D/ D/D/D/D/ | 
[V:3] G,/=B,/=B,/=B,/ =B,/=B,/=B,/=B,/ =B,/=B,/=B,/=B,/ =B,/=B,/=B,/=B,/ | 
[V:4] G,,2=B,,2D,2G,2 | 
[V:1] =Bgdg ^fg=fg | 
[V:2] D4D4 | 
[V:3] =B,4=B,4 | 
[V:4] G,,2z2z4 | 
[V:1] egz2z2Gg | 
[V:2] E4E4 | 
[V:3] C4C4 | 
[V:4] G,,2C,2E,2G,2 | 
[V:1] cgeg ^fgeg | 
[V:2] E4E4 | 
[V:3] C4C4 | 
[V:4] G,,2z2z4 | 
[V:1] dgz2z2Gg | 
[V:2] [G,4F4][G,4F4] | 
[V:3] [=B,4D4][=B,4D4] | 
[V:4] G,,z=B,, z D,zG, z | 
[V:1] Ag=Bg dgeg | 
[V:2] [G,4F4][G,4F4] | 
[V:3] [=B,4D4][=B,4D4] | 
[V:4] A,z=B, z DzE z | 
[V:1] fgdg =BgAg | 
[V:2] [G,4F4][G,4F4] | 
[V:3] [=B,4D4][=B,4D4] | 
[V:4] FzD z =B,zA, z | 
[V:1] GgFf EeDd | 
[V:2] =B,/=B/=B/=B/=B2=B2=B2 | 
[V:3] [G,4F4][G,4F4] | 
[V:4] G,zF, z E,zD, z | 
[V:1] C4-{/D2 C2 =B,2} CCFD | 
[V:2] cG,2G,2G,2=B, | 
[V:3] [G,E]E,2E,2E,2F, | 
[V:4] C,,C,C,C, C,C,C,C, | 
[V:1] D4C2C2 | 
[V:2] =B,=B2=B cde=e | 
[V:3] F,AGF EDCB, | 
[V:4] C,C,C,C, C,C,C,C, | 
[V:1] F4-F{/G2F2=E2}FAG | 
[V:2] fC2C2C2=E | 
[V:3] A,A,2A,2A,2B, | 
[V:4] C,,C,C,C, C,C,C,C, | 
[V:1] G4F2F2 | 
[V:2] =E=e2=e ffga | 
[V:3] B,_DCB, A,G,F,E, | 
[V:4] C,C,C,C, C,C,C,C, | 
[V:1] Fdd4c2 | 
[V:2] aFF4E2 | 
[V:3] D,A,A,4G,2 | 
[V:4] C,,C,C,C, C,C,C,C, | 
[V:1] =Bff4e2 | 
[V:2] DAA4G2 | 
[V:3] F,=B,=B,4C2 | 
[V:4] C,,C,C,C, C,C,C,C, | 
[V:1] edc4=B2 | 
[V:2] AA^FF =A=A=FF | 
[V:3] FFEE EEDD | 
[V:4] F,F,A,A, ^F,F,G,G, | 
[V:1] c2>d2e2z c | 
[V:2] GGGG GGEC | 
[V:3] G,G,G,F EG,E,C, | 
[V:4] E,E,E,=B,, C,G,E,C, | 
[V:1] =Baa4g2 | 
[V:2] G,=B=B=B =B=Bcc | 
[V:3] G,DDD DDEE | 
[V:4] G,,F,F,F, F,F,E,E, | 
[V:1] ff'f'4e'2 | 
[V:2] z ddd ddee | 
[V:3] z G,G,G, G,G,G,G, | 
[V:4] z =B,,=B,,=B,, =B,,=B,,C,C, | 
[V:1] e'2d'2-d'd'f'd' | 
[V:2] e2d2-ddfd | 
[V:3] F, [CA][CA][CA] [CF][CF][CA][CA] | 
[V:4] F,,F,F,F, A,A,F,F, | 
[V:1] d'2c'4=b2 | 
[V:2] d2[E4c4][D2=B2] | 
[V:3] [C=A][C=A]^FF GGG,G, | 
[V:4] ^F,F,A,A, G,G,G,,G,, | 
[V:1] c'2z2z4 | 
[V:2] [G,2E2c2]z2[G,2D2=B2]z2 | 
[V:3] C2z2[G,2G2]z2 | 
[V:4] C,2z2G,,2z2 | 
[V:1] z4z2[G2e2c'2] | 
[V:2] [G,2E2c2][G,2D2=B2][G,2E2c2]z2 | 
[V:3] [G,2G2][G,2G2][G,2G2]z2 | 
[V:4] C,2G,,2C,2z2 | 
[V:1] z4z2[G2d2=b2] | 
[V:2] [G,2D2=B2][G,2E2c2][G,2D2=B2]z2 | 
[V:3] [G,2G2][G,2G2][G,2G2]z2 | 
[V:4] G,,2C,2G,,2z2 | 
[V:1] z4z2[G2e2c'2] | 
[V:2] [G,2E2c2][G,2D2=B2][G,2E2c2]z2 | 
[V:3] [G,2G2][G,2G2][G,2G2]z2 | 
[V:4] C,2G,,2C,2z2 | 
[V:1] z4z2[A2e2c'2] | 
[V:2] [A,2E2c2][A,2F2_d2][A,2E2c2]z2 | 
[V:3] [A,2A2][A,2A2][A,2A2]z2 | 
[V:4] A,,2_D,2A,,2z2 | 
[V:1] z4z2[A2f2_d'2] | 
[V:2] [A,2F2_d2][A,2E2c2][A,2F2d2]z2 | 
[V:3] [A,2A2][A,2A2][A,2A2]z2 | 
[V:4] _D,2A,,2D,2z2 | 
[V:1] z4z2[B2f2d'2] | 
[V:2] [B,2F2d2][B,2_G2e2][B,2F2d2]z2 | 
[V:3] B,2B2B2z2 | 
[V:4] B,,2E,2B,,2z2 | 
[V:1] z2e'2z2_d'2 | 
[V:2] [E2e2]z2[G2B2=e2]z2 | 
[V:3] B2z2[G,2=E2]z2 | 
[V:4] _G,,2z2=G,,2z2 | 
[V:1] z2c'2z2c'2 | 
[V:2] [F2c2f2]z2[c2^f2]z2 | 
[V:3] [A,2F2]z2[A,2^F2]z2 | 
[V:4] A,,2z2A,,2z2 | 
[V:1] [G2d2=b2]G4G2 | 
[V:2] [=B2g2]z2z4 | 
[V:3] [G,2G2]z2z4 | 
[V:4] G,,2z2z4 | 
[V:1] G=e=e4d2 | 
[V:2] z8 | 
[V:3] =E,G,CG, =B,G,F,G, | 
[V:4] C,2z2G,,2z2 | 
[V:1] {/^c2 d2 =e2}d4=c2G2 | 
[V:2] z ggg ^fg=ec | 
[V:3] F,G,F,G, =E,G,C=E | 
[V:4] C,2z2z4 | 
[V:1] Gff4=e2 | 
[V:2] G2z2z4 | 
[V:3] DG,DG, CG,CG, | 
[V:4] =B,,2z2C,2z2 | 
[V:1] {/d2 =e2 f2}=e4d2G2 | 
[V:2] z ggg ^fg=ag | 
[V:3] CG,CG, =B,G,F,G, | 
[V:4] G,,2z2z4 | 
[V:1] Ggg4f2- | 
[V:2] g2G2=A2=B2 | 
[V:3] =E,G,=EG, DG,DG, | 
[V:4] z8 | 
[V:1] f2=e4d2- | 
[V:2] c2=E2^F2^G2 | 
[V:3] C=E,C=E, =B,=E,=B,=E, | 
[V:4] z4=E,,2z2 | 
[V:1] dc=BA G^FcF | 
[V:2] =A2=E2C2CC | 
[V:3] C=E,C=E, =A,D,=A,D, | 
[V:4] =A,,2z2D,2z2 | 
[V:1] Gg^fg fg=ag | 
[V:2] =B,G^FG FG=AG | 
[V:3] G,6[F,2G,2] | 
[V:4] G,,2F,2D,2=B,,2 | 
[V:1] g8- | 
[V:2] G=e=e4d2 | 
[V:3] [=E,G,]=E=E4D2 | 
[V:4] C,G,G,4F,2 | 
[V:1] g2{/^f2 g2} =bg c'g=e'g | 
[V:2] {/^c2 d2 =e2}d4=c2G2 | 
[V:3] {/^C2 D2 ^E2}D4=C2=E,2 | 
[V:4] F,4=E,G,=E,C, | 
[V:1] g8- | 
[V:2] Gff4=e2 | 
[V:3] D,DD4C2 | 
[V:4] =B,,=B,=B,2C2^F,2 | 
[V:1] g8 | 
[V:2] {/d2 =e2 f2}=e4d2G2 | 
[V:3] {/=B,2 C2 D2}C4=B,2z =B, | 
[V:4] G,,G,G,G, ^F,G,=F,G, | 
[V:1] {/^f2 g2} gg'g'4f'2- | 
[V:2] Ggg4f2- | 
[V:3] CG,=EC C=B,=A,=B, | 
[V:4] =E,4D,4 | 
[V:1] f'2=e'4d'2- | 
[V:2] f2=e4d2- | 
[V:3] C=E,C=A, =A,^G,^F,G, | 
[V:4] C,4=B,,4 | 
[V:1] d'c'=b=a =agg^f | 
[V:2] d2c2=A2^F2 | 
[V:3] =A,2=E,2C,2C2 | 
[V:4] =A,,4D,,4 | 
[V:1] g4-g^f/g/ f/g/c'/=b/ | 
[V:2] GDDDD2z2 | 
[V:3] =B,=B,=B,=B,=B,2z2 | 
[V:4] G,,G,G,G,G,2z2 | 
[V:1] ^g2=a2-=ag/=a/ g/=a/d'/c'/ | 
[V:2] z ^FFFF2z2 | 
[V:3] z CCCC2z2 | 
[V:4] z G,G,G,G,2z2 | 
[V:1] ^a/=b/a/=b/ a/=b/=e'/d'/ =b/c'/=b/c'/ =b/c'/f'/=e'/ | 
[V:2] z2F2z2=E2 | 
[V:3] z2D2z2C2 | 
[V:4] z2G,2z2G,2 | 
[V:1] d'/=e'/d'/^c'/ d'/=e'/f'/=e'/ f'/d'/=b/g/ f/d/=B/F/ | 
[V:2] z2[F2d2]z4 | 
[V:3] z2=B,2z4 | 
[V:4] z2G,,2z4 | 
[V:1] =E2G2>G2=Bc | 
[V:2] C2C2>C2F=E | 
[V:3] G,2G,2>G,2G,G, | 
[V:4] C,2=E,2>=E,2D,C, | 
[V:1] d=BG4{/G} F=E/F/ | 
[V:2] D2F2=B,2D2 | 
[V:3] G,2=B,2D2G,2 | 
[V:4] =B,,2D,2G,,2=B,,2 | 
[V:1] =E2G2>G2=Bc | 
[V:2] G,2C2>C2F=E | 
[V:3] G,2G,2>G,2G,G, | 
[V:4] C,2=E,2>=E,2D,C, | 
[V:1] d=BG4{/G} F=E/F/ | 
[V:2] D2F2=B,2D2 | 
[V:3] G,2=B,2D2G,2 | 
[V:4] =B,,2D,2G,,2=B,,2 | 
[V:1] =E2G2>G2=Bc | 
[V:2] G,2C2>C2F=E | 
[V:3] G,2G,2>G,2G,G, | 
[V:4] C,2=E,2>=E,2D,C, | 
[V:1] c=A2<=A2=A^cd | 
[V:2] EC2^C DDGF | 
[V:3] G,=A,2<=A,2=A,=A,=A, | 
[V:4] C,F,2<F,2F,=E,D, | 
[V:1] d2c4=B2 | 
[V:2] =E4_E2D2 | 
[V:3] G,2G2=A2_A2 | 
[V:4] G,4^F,2=F,2 | 
[V:1] cg2g- ggf=e | 
[V:2] =EG2G- GG=Bc | 
[V:3] GC2C- CCG,G, | 
[V:4] =E,E,2E,- E,=E,D,C, | 
[V:1] d=a2=a- =a=agf | 
[V:2] =AA2A- A=A^cd | 
[V:3] CD2D- DD=A,=A, | 
[V:4] F,,F,2F,- F,F,=E,D, | 
[V:1] =eb2b- bb=a^g | 
[V:2] BB2B- BB=A^G | 
[V:3] ^CC2C- CCDD | 
[V:4] G,,G,2G,- G,G,F,=E, | 
[V:1] =a=a=a^g =a=a=ag | 
[V:2] =A=A=A^G =A=A=AG | 
[V:3] DDDD DDDD | 
[V:4] F,F,F,=E, F,F,F,=E, | 
[V:1] =a2=a4c'2- | 
[V:2] =A2c2=A2G2 | 
[V:3] D2C2=A,2G,2 | 
[V:4] F,4E,4 | 
[V:1] c'2e'4^F2 | 
[V:2] ^F4=A4 | 
[V:3] ^F,4=A,4 | 
[V:4] D,4C,4 | 
[V:1] G/G,/=A,/G,/ =B,/=A,/C/=B,/ D/C/=E/D/ F/=E/G/F/ | 
[V:2] D2z2z4 | 
[V:3] D,2z2z4 | 
[V:4] =B,,2z2z4 | 
[V:1] =A/G/=B/=A/ c/=B/d/c/ =e/d/f/=e/ g/^f/=a/g/ | 
[V:2] z4z2=B,2 | 
[V:3] F2D2=B,2F,2 | 
[V:4] F,2D,2=B,,2F,,2 | 
[V:1] gc'2=e'2g'2c'' | 
[V:2] C2z2z c=ec | 
[V:3] =E,2z2z =EC=E | 
[V:4] =E,,2z2z4 | 
[V:1] G,4{/^f2 g2}g4 | 
[V:2] fd=BG FD=B,=B | 
[V:3] DF,G,=B, DFG[G,F] | 
[V:4] G,G,,G,,G,, G,,G,,G,,G,, | 
[V:1] c2z2G2=E2 | 
[V:2] c2z2G2=E2 | 
[V:3] [G,2=E2]z2G2=E2 | 
[V:4] C,2z2G,2=E,2 | 
[V:1] C2^C2D2=E2 | 
[V:2] C2^C2D2=E2 | 
[V:3] C2^C2D2=E2 | 
[V:4] C,2^C,2D,2=E,2 | 
[V:1] F2z2A,2z2 | 
[V:2] F2z2A,2z2 | 
[V:3] F2z2A,2z2 | 
[V:4] F,2z2A,,2z2 | 
[V:1] G,2z2[G,2D2B2][G,2D2B2] | 
[V:2] G,2z2[G,2F2][G,2F2] | 
[V:3] G,2z2D2D2 | 
[V:4] G,,2z2G,,2G,,2 | 
[V:1] [G,2=E2c2]z2G2_E2 | 
[V:2] [G,2=E2]z2G2_E2 | 
[V:3] C2z2G2E2 | 
[V:4] C,2z2G,2E,2 | 
[V:1] C2^C2D2E2 | 
[V:2] C2^C2D2E2 | 
[V:3] C2^C2D2E2 | 
[V:4] C,2^C,2D,2E,2 | 
[V:1] F2z2G,2z2 | 
[V:2] F2z2G,2z2 | 
[V:3] F2z2G,2z2 | 
[V:4] F,2z2G,,2z2 | 
[V:1] A,2z2[A,2E2c2][A,2E2c2] | 
[V:2] A,2z2[A,2_G2][A,2G2] | 
[V:3] A,2z2A,2A,2 | 
[V:4] A,,2z2A,,2A,,2 | 
[V:1] [A,4F4_d4-]d{/e2d2c2}dfe | 
[V:2] [A,6F6]_G2 | 
[V:3] A,6=A,2 | 
[V:4] A,,6=A,,2 | 
[V:1] e4dd_gf | 
[V:2] _G2F2B2A2- | 
[V:3] B,6B,2 | 
[V:4] B,,6B,,2 | 
[V:1] fea_g gfba | 
[V:2] AE2=A BF2=B | 
[V:3] _C2=C2_D2=D2 | 
[V:4] _C,2=C,2_D,2=D,2 | 
[V:1] agc'b bad'c' | 
[V:2] cG2c ccdc | 
[V:3] E2=E2F2^F2 | 
[V:4] E,2=E,2F,2^F,2 | 
[V:1] c'=bg'4f'/e'/d'/c'/ | 
[V:2] =B =B=B=Bzccc | 
[V:3] G DDDzCCC | 
[V:4] G,2z2A,2z2 | 
[V:1] a'4=B4 | 
[V:2] z aaaz[G,F][G,F][G,F] | 
[V:3] z [CD][CD][CD]zDDD | 
[V:4] F,2z2G,2z2 | 
[V:1] c2z =b c'gzf | 
[V:2] [G,2E2]z =B cGzF | 
[V:3] C2[G,4G4][G,2G2]- | 
[V:4] C,G,F,G, E,G,=B,,G, | 
[V:1] egz=b c'gzf | 
[V:2] EGz=B cGzF | 
[V:3] [G,2G2][G,4G4][G,2G2]- | 
[V:4] C,G,F,G, E,G,=B,,G, | 
[V:1] eg=eg fagb | 
[V:2] EG=EG FAGB | 
[V:3] [G,G]C,[C,4C4][C,2C2]- | 
[V:4] C,C,B,,C, A,,C,=E,,C, | 
[V:1] ac'df eg=Bd | 
[V:2] AcDF EG=B,D | 
[V:3] [C,C]A,zA,zG,z[F,G,] | 
[V:4] F,,F,F,,F, G,,G,G,,G, | 
[V:1] cc'c'c' c'c'c'c' | 
[V:2] Eg=eg fagb | 
[V:3] C/C/E,/E,/ C/C/=E,/=E,/ C/C/F,/F,/ C/C/G,/G,/ | 
[V:4] C,C,B,,C, A,,C,=E,,C, | 
[V:1] c'a'2f' e'g'=bd' | 
[V:2] ac'df eg=Bd | 
[V:3] C/C/A,/A,/ C/C/A,/A,/ C/C/E/E/ D/D/F/F/ | 
[V:4] F,,F,F,,F, G,,G,G,,G, | 
[V:1] c'4-c'{/d'2c'2=b2}c'e'd' | 
[V:2] c2G2-GG=B=B | 
[V:3] E,2E2-EEFF | 
[V:4] C,CCC CCCC | 
[V:1] c'c'e'd' c'c'e'd' | 
[V:2] cG=B=B cG=B=B | 
[V:3] EEFF EEFF | 
[V:4] CCCC CCCC | 
[V:1] c'2z2z ced | 
[V:2] c2z2z EGF | 
[V:3] E2z2z G,=B,=B, | 
[V:4] CC,C,C, C,C,C,C, | 
[V:1] c2z2z4 | 
[V:2] E2z2z4 | 
[V:3] C2z2z C,E,D, | 
[V:4] C,C,,C,,C,, C,,C,,E,,D,, | 
[V:1] [G,2E2c2]z2[G,2E2c2]z2 | 
[V:2] C2z2[C2E2]z2 | 
[V:3] C,2z2[C,2C2]z2 | 
[V:4] C,,2z2[C,,2C,2]z2 | 
[V:1] [G,6E6c6] |]  
[V:2] [C6E6] |]  
[V:3] [C,6C6] |]  
[V:4] [C,,6C,6] |]  


